src/public/images/like.svg

<svg xmlns="http://www.w3.org/2000/svg" width="512" height="512" fill="none" xmlns:v="https://vecta.io/nano"><g clip-path="url(#A)"><path d="M511.812 167.164C508.179 89.995 448.439 29.1 377.056 28.529h-1.04c-65.963 0-102.73 48.413-120.016 81.095-17.285-32.681-54.052-81.095-120.015-81.095h-1.04C63.562 29.101 3.821 89.995.188 167.164c-4.468 94.63 71.035 158.132 183.814 254.225l62.125 53.439 9.873 8.643 9.873-8.642 62.125-53.439c112.779-96.095 188.282-159.596 183.814-254.226z" fill="#fff"/></g><defs><clipPath id="A"><path fill="#fff" d="M0 0h512v512H0z"/></clipPath></defs></svg>

<svg width="512" height="512" viewBox="0 0 512 512" fill="none" xmlns="http://www.w3.org/2000/svg">
<g clip-path="url(#clip0)">
<path d="M511.812 167.164C508.179 89.995 448.439 29.1 377.056 28.529C376.704 28.529 376.368 28.529 376.016 28.529C310.053 28.529 273.286 76.942 256 109.624C238.715 76.943 201.948 28.529 135.985 28.529C135.633 28.529 135.282 28.529 134.945 28.529C63.562 29.101 3.82101 89.995 0.18801 167.164C-4.27999 261.794 71.223 325.296 184.002 421.389C203.528 438.03 224.3 455.725 246.127 474.828L256 483.471L265.873 474.829C287.699 455.727 308.471 438.032 327.998 421.39C440.777 325.295 516.28 261.794 511.812 167.164Z" fill="white"/>
</g>
<defs>
<clipPath id="clip0">
<rect width="512" height="512" fill="white"/>
</clipPath>
</defs>
</svg>
